public/assets/grid-icon.svg

<svg xmlns="http://www.w3.org/2000/svg" width="50" height="50" fill="none" viewBox="0 0 50 50"><g clip-path="url(#a)"><path fill="#a5c352" d="M48.95 39.47 32.68 7.32c-1.32-2.6-5.03-2.6-6.34 0L10.06 39.47c-1.2 2.36.52 5.16 3.17 5.16h32.54c2.65 0 4.37-2.79 3.17-5.16z"/><path fill="#006d68" d="m22.74 15.22-4.2 13.82-2.13-1.99c1.81-.44 9.59-2.31 11.25-2.71-.25.47-8.95 17.07-9.54 18.18l6.39-16.98 1.35 1.53-8.45 3.18-2.64.99c.31-1.79 2.61-15.1 2.98-17.22l5 1.19z"/><path stroke="#006d68" stroke-miterlimit="10" stroke-width="1.45" d="M36.77 44.63H4.22c-2.65 0-4.37-2.8-3.17-5.16L17.32 7.32c1.32-2.6 5.03-2.6 6.34 0l16.27 32.15c1.2 2.36-.52 5.16-3.17 5.16z"/></g><defs><clipPath id="a"><path fill="#fff" d="M0 0h50v50H0z"/></clipPath></defs></svg>

<svg width="50" height="50" viewBox="0 0 50 50" fill="none" xmlns="http://www.w3.org/2000/svg">
<g clip-path="url(#clip0_59_2303)">
<path d="M48.95 39.47L32.68 7.32C31.36 4.72 27.65 4.72 26.34 7.32L10.06 39.47C8.86002 41.83 10.58 44.63 13.23 44.63H45.77C48.42 44.63 50.14 41.84 48.94 39.47H48.95Z" fill="#A5C352"/>
<path d="M22.74 15.22L18.54 29.04L16.41 27.05C18.22 26.61 26 24.74 27.66 24.34C27.41 24.81 18.71 41.41 18.12 42.52L24.51 25.54L25.86 27.07L17.41 30.25L14.77 31.24C15.08 29.45 17.38 16.14 17.75 14.02L22.75 15.21L22.74 15.22Z" fill="#006D68"/>
<path d="M36.77 44.63H4.22001C1.57001 44.63 -0.149988 41.83 1.05001 39.47L17.32 7.32C18.64 4.72 22.35 4.72 23.66 7.32L39.93 39.47C41.13 41.83 39.41 44.63 36.76 44.63H36.77Z" stroke="#006D68" stroke-width="1.45" stroke-miterlimit="10"/>
</g>
<defs>
<clipPath id="clip0_59_2303">
<rect width="50" height="50" fill="white"/>
</clipPath>
</defs>
</svg>
